X:1
T:Wonderful Love (Bainbridge)
T:Wonderful Love (Bainbridge)
T:Thomas Bainbridge (?-1932)
T:Public Domain Courtesy of the Cyber Hymnal™
C:Thomas Bainbridge (?-1932)
Z:Public Domain
Z:Courtesy of the Cyber Hymnal™
%%score ( 1 2 ) ( 3 4 )
L:1/8
Q:1/4=100
M:6/8
K:Ab
V:1 treble 
V:2 treble 
V:3 bass 
V:4 bass 
V:1
 [Ec][Ec][Ec] ([Ec][DB])[CA] | BA[DF] [CE]3 | [Ec]>[DB][CA] [CA][DG][CA] | [Ed]3- [Ed]2 E | %4
 cc[Ec] (cB)[EA] | (BA)[DF] [DF]2 [EF] | [=DB]2 [DB] Bc[DB] | BA[_DF] E2 E | A2 A [CA]2 [EA] | %9
 [DF]2 F !fermata![Ed]3 | [Ec]>[DB][CA] [DB]>[CA][B,G] | [CA]3- [CA]2 z || %12
[M:3/4]"^Refrain"[Q:1/4=180] [Ec]3 [DB] [CA]2 | [Ec]3 [DB] [CA]2 | B2 A2 [DF]2 | [CE]6 | %16
 c2 B2 [=DA]2 | (A2 G2) [B,F]2 | E2 A2 c2 | [EB]6 | [Ec]3 [DB] [CA]2 | [Ec]3 [DB] [CA]2 | %22
 (B2 A2) F2 | !fermata![Ed]6 | [Ec]3 [DB] [CA]2 | [DB]3 [CA] [B,G]2 | [CA]6- | [CA]4 z2 |] %28
V:2
 x6 | D2 x4 | x6 | x5 E | E2 E2 x2 | D2 x4 | x3 =D2 x | =D2 E2 E x | E3 x3 | x6 | x6 | x6 || %12
[M:3/4] x6 | x6 | D4 x2 | x6 | E4 x2 | E4 x2 | E2 E4 | x6 | x6 | x6 | D4 F2 | x6 | x6 | x6 | x6 | %27
 x6 |] %28
V:3
 [A,,A,]3 [A,,A,]2 [A,,A,] | [D,F,]2 [D,A,] [A,,A,]3 | [A,,A,]>[E,G,][F,A,] [F,A,][E,B,]A, | %3
 [G,B,]2 [F,A,][E,G,][F,A,][G,B,] | A,2 [C,A,] [A,,A,][B,,G,][C,A,] | %5
 [D,F,]2 [D,B,] [D,B,]2 [C,=A,] | [B,,B,]2 [B,,B,] [B,,F,]2 [B,,B,] | %7
 [B,,B,]2 [B,,A,] [E,G,]2 [D,G,] | [C,A,]3 [A,,A,]2 [C,A,] | [D,A,]B,[A,B,] !fermata![G,B,]3 | %10
 A,>[E,G,][F,A,] [D,F,]>E,[E,,E,] | [A,,E,]3- [A,,E,]2 z ||[M:3/4] [A,,A,]4 [A,,A,]2 | %13
 [A,,A,]4 [A,,A,]2 | [D,F,]4 [D,A,]2 | [A,,A,]6 | A,2 B,4 | [E,B,]4 [D,G,]2 | [C,A,]4 [A,,A,]2 | %19
 [E,G,]6 | [A,,A,]4 [A,,A,]2 | [A,,A,]4 [A,,A,]2 | (F,2 B,2) [D,A,]2 | !fermata![B,,G,]6 | %24
 [A,,A,]3 [E,G,] [F,A,]2 | [D,F,]3 E, [E,,E,]2 | [A,,E,]6- | [A,,E,]4 z2 |] %28
V:4
 x6 | x6 | x6 | x6 | A, E, x4 | x6 | x6 | x6 | x6 | x6 | x6 | x6 ||[M:3/4] x6 | x6 | x6 | x6 | %16
 A,2 G,2 F,2 | x6 | x6 | x6 | x6 | x6 | D,4 x2 | x6 | x6 | x3 E, x2 | x6 | x6 |] %28

